X: 1
T:the Green Hills of Tyrol (the Scottish Soldier)
R:waltz
O:trad Scotland
M:3/4
L:1/8
K:G
|:D G<A|"G"B2 BG B<c|d2 de Be|"D7"d>c AF Ae|"G"d>B GD G<A|
"G"B2 BG B<c|d2 de B<e|"D7"d>c AD FA|"G"G3:|
%%text Chorus
"G7"G Bd|"C"g2 g2 fe|"G"e>d dG Be|"D7"d>c cB cd|"G"c>B BG Bd|
"C"g2 g2 fe|"G"e>d dG Be|"D7"d>c c2 F2|"G"G3|]
